;FLAVOR:Marlin
;TIME:84
;Filament used: 0.0482074m
;Layer height: 0.1
;MINX:90.7
;MINY:90.7
;MINZ:0.3
;MAXX:109.3
;MAXY:109.3
;MAXZ:3
;Generated with Cura_SteamEngine 4.3.0
M104 S200
M105
M109 S200
M82 ;absolute extrusion mode
G21 ;metric values
G90 ;absolute positioning
M82 ;set extruder to absolute mode
M107 ;start with the fan off
G28 X0 Y0 ;move X/Y to min endstops
G28 Z0 ;move Z to min endstops
G1 Z15.0 F9000 ;move the platform down 15mm
G92 E0 ;zero the extruded length
G1 F200 E3 ;extrude 3mm of feed stock
G92 E0 ;zero the extruded length again
G1 F9000
;Put printing message on LCD screen
M117 Printing...
G92 E0
G92 E0
G1 F1500 E-6.5
;LAYER_COUNT:28
;LAYER:0
M107
G0 F3600 X93.123 Y92.849 Z0.3
;TYPE:SKIRT
G1 F1500 E0
G1 F1800 X93.722 Y92.334 E0.03941
G1 X94.37 Y91.883 E0.0788
G1 X95.061 Y91.499 E0.11824
G1 X95.786 Y91.187 E0.15762
G1 X96.539 Y90.95 E0.197
G1 X97.313 Y90.791 E0.23642
G1 X98.098 Y90.71 E0.27579
G1 X98.5 Y90.7 E0.29586
G1 X101.5 Y90.7 E0.44553
G1 X102.289 Y90.74 E0.48494
G1 X103.069 Y90.859 E0.5243
G1 X103.834 Y91.057 E0.56373
G1 X104.574 Y91.331 E0.6031
G1 X105.283 Y91.679 E0.6425
G1 X105.954 Y92.097 E0.68194
G1 X106.578 Y92.58 E0.72131
G1 X107.151 Y93.123 E0.76069
G1 X107.666 Y93.722 E0.8001
G1 X108.117 Y94.37 E0.83949
G1 X108.501 Y95.061 E0.87893
G1 X108.813 Y95.786 E0.91831
G1 X109.05 Y96.539 E0.95769
G1 X109.209 Y97.313 E0.99711
G1 X109.29 Y98.098 E1.03649
G1 X109.3 Y98.5 E1.05655
G1 X109.3 Y101.5 E1.20622
G1 X109.26 Y102.289 E1.24563
G1 X109.141 Y103.069 E1.285
G1 X108.943 Y103.834 E1.32442
G1 X108.669 Y104.574 E1.36379
G1 X108.321 Y105.283 E1.40319
G1 X107.903 Y105.954 E1.44263
G1 X107.42 Y106.578 E1.482
G1 X106.877 Y107.151 E1.52139
G1 X106.278 Y107.666 E1.5608
G1 X105.63 Y108.117 E1.60018
G1 X104.939 Y108.501 E1.63962
G1 X104.214 Y108.813 E1.679
G1 X103.461 Y109.05 E1.71839
G1 X102.687 Y109.209 E1.75781
G1 X101.902 Y109.29 E1.79718
G1 X101.5 Y109.3 E1.81724
G1 X98.5 Y109.3 E1.96691
G1 X97.711 Y109.26 E2.00633
G1 X96.931 Y109.141 E2.04569
G1 X96.166 Y108.943 E2.08511
G1 X95.426 Y108.669 E2.12448
G1 X94.717 Y108.321 E2.16389
G1 X94.046 Y107.903 E2.20333
G1 X93.422 Y107.42 E2.24269
G1 X92.849 Y106.877 E2.28208
G1 X92.334 Y106.278 E2.32149
G1 X91.883 Y105.63 E2.36088
G1 X91.499 Y104.939 E2.40032
G1 X91.187 Y104.214 E2.43969
G1 X90.95 Y103.461 E2.47908
G1 X90.791 Y102.687 E2.5185
G1 X90.71 Y101.902 E2.55787
G1 X90.7 Y101.5 E2.57793
G1 X90.7 Y98.5 E2.7276
G1 X90.74 Y97.711 E2.76702
G1 X90.859 Y96.931 E2.80638
G1 X91.057 Y96.166 E2.84581
G1 X91.331 Y95.426 E2.88517
G1 X91.679 Y94.717 E2.92458
G1 X92.097 Y94.046 E2.96402
G1 X92.58 Y93.422 E3.00339
G1 X93.123 Y92.849 E3.04277
G0 F3600 X93.516 Y93.03
G1 F1800 X94.111 Y92.542 E3.08116
G1 X94.753 Y92.119 E3.11952
G1 X95.436 Y91.764 E3.15792
G1 X96.151 Y91.483 E3.19625
G1 X96.893 Y91.277 E3.23467
G1 X97.651 Y91.149 E3.27302
G1 X98.5 Y91.1 E3.31545
G1 X101.5 Y91.1 E3.46512
G1 X102.268 Y91.14 E3.50349
G1 X103.028 Y91.259 E3.54186
G1 X103.771 Y91.457 E3.58023
G1 X104.49 Y91.731 E3.61861
G1 X105.176 Y92.078 E3.65697
G1 X105.823 Y92.494 E3.69534
G1 X106.423 Y92.975 E3.73371
G1 X106.97 Y93.516 E3.77209
G1 X107.458 Y94.111 E3.81048
G1 X107.881 Y94.753 E3.84884
G1 X108.236 Y95.436 E3.88724
G1 X108.517 Y96.151 E3.92557
G1 X108.723 Y96.893 E3.96399
G1 X108.851 Y97.651 E4.00234
G1 X108.9 Y98.5 E4.04477
G1 X108.9 Y101.5 E4.19444
G1 X108.86 Y102.268 E4.23281
G1 X108.741 Y103.028 E4.27119
G1 X108.543 Y103.771 E4.30955
G1 X108.269 Y104.49 E4.34794
G1 X107.922 Y105.176 E4.38629
G1 X107.506 Y105.823 E4.42466
G1 X107.025 Y106.423 E4.46303
G1 X106.484 Y106.97 E4.50141
G1 X105.889 Y107.458 E4.5398
G1 X105.247 Y107.881 E4.57816
G1 X104.564 Y108.236 E4.61656
G1 X103.849 Y108.517 E4.65489
G1 X103.107 Y108.723 E4.69331
G1 X102.349 Y108.851 E4.73166
G1 X101.5 Y108.9 E4.77409
G1 X98.5 Y108.9 E4.92376
G1 X97.732 Y108.86 E4.96213
G1 X96.972 Y108.741 E5.00051
G1 X96.229 Y108.543 E5.03887
G1 X95.51 Y108.269 E5.07726
G1 X94.824 Y107.922 E5.11561
G1 X94.177 Y107.506 E5.15399
G1 X93.577 Y107.025 E5.19235
G1 X93.03 Y106.484 E5.23073
G1 X92.542 Y105.889 E5.26913
G1 X92.119 Y105.247 E5.30748
G1 X91.764 Y104.564 E5.34589
G1 X91.483 Y103.849 E5.38421
G1 X91.277 Y103.107 E5.42263
G1 X91.149 Y102.349 E5.46098
G1 X91.1 Y101.5 E5.50341
G1 X91.1 Y98.5 E5.65308
G1 X91.14 Y97.732 E5.69145
G1 X91.259 Y96.972 E5.72983
G1 X91.457 Y96.229 E5.76819
G1 X91.731 Y95.51 E5.80658
G1 X92.078 Y94.824 E5.84493
G1 X92.494 Y94.177 E5.88331
G1 X92.975 Y93.577 E5.92167
G1 X93.516 Y93.03 E5.96006
G0 F3600 X93.908 Y93.216
G1 F1800 X94.498 Y92.757 E5.99735
G1 X95.134 Y92.362 E6.0347
G1 X95.808 Y92.038 E6.07201
G1 X96.513 Y91.788 E6.10933
G1 X97.241 Y91.614 E6.14667
G1 X97.983 Y91.519 E6.18399
G1 X98.5 Y91.5 E6.2098
G1 X101.5 Y91.5 E6.35947
G1 X102.247 Y91.54 E6.3968
G1 X102.985 Y91.659 E6.43409
G1 X103.707 Y91.857 E6.47144
G1 X104.403 Y92.13 E6.50874
G1 X105.066 Y92.477 E6.54607
G1 X105.689 Y92.892 E6.58342
G1 X106.263 Y93.371 E6.62072
G1 X106.784 Y93.908 E6.65805
G1 X107.243 Y94.498 E6.69534
G1 X107.638 Y95.134 E6.73269
G1 X107.962 Y95.808 E6.77
G1 X108.212 Y96.513 E6.80732
G1 X108.386 Y97.241 E6.84466
G1 X108.481 Y97.983 E6.88198
G1 X108.5 Y98.5 E6.90779
G1 X108.5 Y101.5 E7.05746
G1 X108.46 Y102.247 E7.09479
G1 X108.341 Y102.985 E7.13208
G1 X108.143 Y103.707 E7.16943
G1 X107.87 Y104.403 E7.20673
G1 X107.523 Y105.066 E7.24406
G1 X107.108 Y105.689 E7.28141
G1 X106.629 Y106.263 E7.31871
G1 X106.092 Y106.784 E7.35604
G1 X105.502 Y107.243 E7.39333
G1 X104.866 Y107.638 E7.43068
G1 X104.192 Y107.962 E7.46799
G1 X103.487 Y108.212 E7.50531
G1 X102.759 Y108.386 E7.54265
G1 X102.017 Y108.481 E7.57997
G1 X101.5 Y108.5 E7.60578
G1 X98.5 Y108.5 E7.75546
G1 X97.753 Y108.46 E7.79278
G1 X97.015 Y108.341 E7.83007
G1 X96.293 Y108.143 E7.86742
G1 X95.597 Y107.87 E7.90472
G1 X94.934 Y107.523 E7.94205
G1 X94.311 Y107.108 E7.9794
G1 X93.737 Y106.629 E8.0167
G1 X93.216 Y106.092 E8.05403
G1 X92.757 Y105.502 E8.09132
G1 X92.362 Y104.866 E8.12867
G1 X92.038 Y104.192 E8.16598
G1 X91.788 Y103.487 E8.2033
G1 X91.614 Y102.759 E8.24064
G1 X91.519 Y102.017 E8.27796
G1 X91.5 Y101.5 E8.30378
G1 X91.5 Y98.5 E8.45345
G1 X91.54 Y97.753 E8.49077
G1 X91.659 Y97.015 E8.52806
G1 X91.857 Y96.293 E8.56541
G1 X92.13 Y95.597 E8.60271
G1 X92.477 Y94.934 E8.64005
G1 X92.892 Y94.311 E8.67739
G1 X93.371 Y93.737 E8.71469
G1 X93.908 Y93.216 E8.75202
G0 F3600 X93.765 Y93.902
G1 F1800 X94.299 Y93.409 E8.78828
G1 X94.884 Y92.979 E8.8245
G1 X95.513 Y92.615 E8.86076
G1 X96.178 Y92.322 E8.89701
G1 X96.871 Y92.104 E8.93325
G1 X97.583 Y91.964 E8.96946
G1 X98.5 Y91.9 E9.01532
G1 X101.5 Y91.9 E9.16499
G1 X102.225 Y91.94 E9.20121
G1 X102.942 Y92.059 E9.23747
G1 X103.641 Y92.257 E9.27372
G1 X104.314 Y92.53 E9.30995
G1 X104.953 Y92.875 E9.34618
G1 X105.55 Y93.289 E9.38243
G1 X106.098 Y93.765 E9.41864
G1 X106.591 Y94.299 E9.4549
G1 X107.021 Y94.884 E9.49112
G1 X107.385 Y95.513 E9.52738
G1 X107.678 Y96.178 E9.56363
G1 X107.896 Y96.871 E9.59988
G1 X108.036 Y97.583 E9.63608
G1 X108.1 Y98.5 E9.68194
G1 X108.1 Y101.5 E9.83161
G1 X108.06 Y102.225 E9.86784
G1 X107.941 Y102.942 E9.9041
G1 X107.743 Y103.641 E9.94034
G1 X107.47 Y104.314 E9.97658
G1 X107.125 Y104.953 E10.0128
G1 X106.711 Y105.55 E10.04905
G1 X106.235 Y106.098 E10.08526
G1 X105.701 Y106.591 E10.12152
G1 X105.116 Y107.021 E10.15774
G1 X104.487 Y107.385 E10.194
G1 X103.822 Y107.678 E10.23026
G1 X103.129 Y107.896 E10.2665
G1 X102.417 Y108.036 E10.3027
G1 X101.5 Y108.1 E10.34856
G1 X98.5 Y108.1 E10.49823
G1 X97.775 Y108.06 E10.53446
G1 X97.058 Y107.941 E10.57072
G1 X96.359 Y107.743 E10.60696
G1 X95.686 Y107.47 E10.6432
G1 X95.047 Y107.125 E10.67943
G1 X94.45 Y106.711 E10.71567
G1 X93.902 Y106.235 E10.75189
G1 X93.409 Y105.701 E10.78815
G1 X92.979 Y105.116 E10.82437
G1 X92.615 Y104.487 E10.86062
G1 X92.322 Y103.822 E10.89688
G1 X92.104 Y103.129 E10.93312
G1 X91.964 Y102.417 E10.96933
G1 X91.9 Y101.5 E11.01519
G1 X91.9 Y98.5 E11.16486
G1 X91.94 Y97.775 E11.20108
G1 X92.059 Y97.058 E11.23734
G1 X92.257 Y96.359 E11.27359
G1 X92.53 Y95.686 E11.30982
G1 X92.875 Y95.047 E11.34605
G1 X93.289 Y94.45 E11.3823
G1 X93.765 Y93.902 E11.41851
G0 F3600 X94.159 Y94.073
G1 F1800 X94.689 Y93.609 E11.45365
G1 X95.268 Y93.209 E11.48876
G1 X95.889 Y92.877 E11.52389
G1 X96.543 Y92.617 E11.55901
G1 X97.223 Y92.433 E11.59415
G1 X97.919 Y92.327 E11.62928
G1 X98.5 Y92.3 E11.65829
G1 X101.5 Y92.3 E11.80796
G1 X102.203 Y92.34 E11.84309
G1 X102.897 Y92.459 E11.87822
G1 X103.572 Y92.657 E11.91332
G1 X104.221 Y92.929 E11.94842
G1 X104.835 Y93.274 E11.98356
G1 X105.406 Y93.685 E12.01866
G1 X105.927 Y94.159 E12.0538
G1 X106.391 Y94.689 E12.08894
G1 X106.791 Y95.268 E12.12405
G1 X107.123 Y95.889 E12.15919
G1 X107.383 Y96.543 E12.1943
G1 X107.567 Y97.223 E12.22944
G1 X107.673 Y97.919 E12.26457
G1 X107.7 Y98.5 E12.29358
G1 X107.7 Y101.5 E12.44326
G1 X107.66 Y102.203 E12.47838
G1 X107.541 Y102.897 E12.51351
G1 X107.343 Y103.572 E12.54861
G1 X107.071 Y104.221 E12.58372
G1 X106.726 Y104.835 E12.61885
G1 X106.315 Y105.406 E12.65395
G1 X105.841 Y105.927 E12.68909
G1 X105.311 Y106.391 E12.72424
G1 X104.732 Y106.791 E12.75935
G1 X104.111 Y107.123 E12.79448
G1 X103.457 Y107.383 E12.82959
G1 X102.777 Y107.567 E12.86473
G1 X102.081 Y107.673 E12.89986
G1 X101.5 Y107.7 E12.92888
G1 X98.5 Y107.7 E13.07855
G1 X97.797 Y107.66 E13.11368
G1 X97.103 Y107.541 E13.14881
G1 X96.428 Y107.343 E13.1839
G1 X95.779 Y107.071 E13.21901
G1 X95.165 Y106.726 E13.25414
G1 X94.594 Y106.315 E13.28924
G1 X94.073 Y105.841 E13.32438
G1 X93.609 Y105.311 E13.35953
G1 X93.209 Y104.732 E13.39464
G1 X92.877 Y104.111 E13.42977
G1 X92.617 Y103.457 E13.46488
G1 X92.433 Y102.777 E13.50003
G1 X92.327 Y102.081 E13.53515
G1 X92.3 Y101.5 E13.56417
G1 X92.3 Y98.5 E13.71384
G1 X92.34 Y97.797 E13.74897
G1 X92.459 Y97.103 E13.7841
G1 X92.657 Y96.428 E13.81919
G1 X92.929 Y95.779 E13.8543
G1 X93.274 Y95.165 E13.88944
G1 X93.685 Y94.594 E13.92454
G1 X94.159 Y94.073 E13.95968
G0 F3600 X94.553 Y94.251
G1 F1800 X95.078 Y93.817 E13.99366
G1 X95.65 Y93.448 E14.02762
G1 X96.262 Y93.149 E14.0616
G1 X96.904 Y92.924 E14.09554
G1 X97.569 Y92.775 E14.12954
G1 X98.5 Y92.7 E14.17614
G1 X101.5 Y92.7 E14.32581
G1 X102.18 Y92.74 E14.35979
G1 X102.85 Y92.859 E14.39374
G1 X103.502 Y93.056 E14.42772
G1 X104.126 Y93.328 E14.46168
G1 X104.714 Y93.672 E14.49567
G1 X105.258 Y94.082 E14.52966
G1 X105.749 Y94.553 E14.5636
G1 X106.183 Y95.078 E14.59758
G1 X106.552 Y95.65 E14.63154
G1 X106.851 Y96.262 E14.66553
G1 X107.076 Y96.904 E14.69947
G1 X107.225 Y97.569 E14.73347
G1 X107.3 Y98.5 E14.78006
G1 X107.3 Y101.5 E14.92973
G1 X107.26 Y102.18 E14.96372
G1 X107.141 Y102.85 E14.99767
G1 X106.944 Y103.502 E15.03165
G1 X106.672 Y104.126 E15.06561
G1 X106.328 Y104.714 E15.0996
G1 X105.918 Y105.258 E15.13358
G1 X105.447 Y105.749 E15.16753
G1 X104.922 Y106.183 E15.20151
G1 X104.35 Y106.552 E15.23547
G1 X103.738 Y106.851 E15.26945
G1 X103.096 Y107.076 E15.30339
G1 X102.431 Y107.225 E15.33739
G1 X101.5 Y107.3 E15.38399
G1 X98.5 Y107.3 E15.53366
G1 X97.82 Y107.26 E15.56764
G1 X97.15 Y107.141 E15.60159
G1 X96.498 Y106.944 E15.63557
G1 X95.874 Y106.672 E15.66953
G1 X95.286 Y106.328 E15.70352
G1 X94.742 Y105.918 E15.73751
G1 X94.251 Y105.447 E15.77145
G1 X93.817 Y104.922 E15.80543
G1 X93.448 Y104.35 E15.83939
G1 X93.149 Y103.738 E15.87338
G1 X92.924 Y103.096 E15.90732
G1 X92.775 Y102.431 E15.94132
G1 X92.7 Y101.5 E15.98791
G1 X92.7 Y98.5 E16.13758
G1 X92.74 Y97.82 E16.17157
G1 X92.859 Y97.15 E16.20552
G1 X93.056 Y96.498 E16.2395
G1 X93.328 Y95.874 E16.27346
G1 X93.672 Y95.286 E16.30745
G1 X94.082 Y94.742 E16.34143
G1 X94.553 Y94.251 E16.37538
G0 F3600 X94.945 Y94.435
G1 F1800 X95.465 Y94.034 E16.40814
G1 X96.029 Y93.698 E16.44089
G1 X96.631 Y93.434 E16.47368
G1 X97.26 Y93.244 E16.50647
G1 X97.907 Y93.133 E16.53922
G1 X98.5 Y93.1 E16.56885
G1 X101.5 Y93.1 E16.71852
G1 X102.156 Y93.14 E16.75131
G1 X102.802 Y93.259 E16.78408
G1 X103.429 Y93.456 E16.81687
G1 X104.027 Y93.728 E16.84964
G1 X104.588 Y94.07 E16.88242
G1 X105.103 Y94.478 E16.9152
G1 X105.565 Y94.945 E16.94797
G1 X105.966 Y95.465 E16.98073
G1 X106.302 Y96.029 E17.01349
G1 X106.566 Y96.631 E17.04628
G1 X106.756 Y97.26 E17.07906
G1 X106.867 Y97.907 E17.11181
G1 X106.9 Y98.5 E17.14145
G1 X106.9 Y101.5 E17.29112
G1 X106.86 Y102.156 E17.3239
G1 X106.741 Y102.802 E17.35668
G1 X106.544 Y103.429 E17.38946
G1 X106.272 Y104.027 E17.42224
G1 X105.93 Y104.588 E17.45502
G1 X105.522 Y105.103 E17.4878
G1 X105.055 Y105.565 E17.52057
G1 X104.535 Y105.966 E17.55333
G1 X103.971 Y106.302 E17.58609
G1 X103.369 Y106.566 E17.61888
G1 X102.74 Y106.756 E17.65166
G1 X102.093 Y106.867 E17.68441
G1 X101.5 Y106.9 E17.71404
G1 X98.5 Y106.9 E17.86371
G1 X97.844 Y106.86 E17.8965
G1 X97.198 Y106.741 E17.92927
G1 X96.571 Y106.544 E17.96206
G1 X95.973 Y106.272 E17.99484
G1 X95.412 Y105.93 E18.02762
G1 X94.897 Y105.522 E18.0604
G1 X94.435 Y105.055 E18.09317
G1 X94.034 Y104.535 E18.12593
G1 X93.698 Y103.971 E18.15868
G1 X93.434 Y103.369 E18.19148
G1 X93.244 Y102.74 E18.22426
G1 X93.133 Y102.093 E18.25701
G1 X93.1 Y101.5 E18.28664
G1 X93.1 Y98.5 E18.43631
G1 X93.14 Y97.844 E18.4691
G1 X93.259 Y97.198 E18.50187
G1 X93.456 Y96.571 E18.53466
G1 X93.728 Y95.973 E18.56744
G1 X94.07 Y95.412 E18.60022
G1 X94.478 Y94.897 E18.633
G1 X94.945 Y94.435 E18.66577
G0 F3600 X94.873 Y95.059
G1 F1800 X95.336 Y94.629 E18.69729
G1 X95.85 Y94.26 E18.72886
G1 X96.406 Y93.96 E18.76038
G1 X96.995 Y93.732 E18.79189
G1 X97.609 Y93.58 E18.82345
G1 X98.5 Y93.5 E18.86808
G1 X101.5 Y93.5 E19.01775
G1 X102.131 Y93.54 E19.04929
G1 X102.752 Y93.659 E19.08084
G1 X103.352 Y93.856 E19.11235
G1 X103.924 Y94.127 E19.14392
G1 X104.456 Y94.467 E19.17542
G1 X104.941 Y94.873 E19.20698
G1 X105.371 Y95.336 E19.2385
G1 X105.74 Y95.85 E19.27007
G1 X106.04 Y96.406 E19.30159
G1 X106.268 Y96.995 E19.3331
G1 X106.42 Y97.609 E19.36466
G1 X106.5 Y98.5 E19.40929
G1 X106.5 Y101.5 E19.55896
G1 X106.46 Y102.131 E19.5905
G1 X106.341 Y102.752 E19.62205
G1 X106.144 Y103.352 E19.65355
G1 X105.873 Y103.924 E19.68513
G1 X105.533 Y104.456 E19.71663
G1 X105.127 Y104.941 E19.74819
G1 X104.664 Y105.371 E19.77971
G1 X104.15 Y105.74 E19.81128
G1 X103.594 Y106.04 E19.8428
G1 X103.005 Y106.268 E19.87431
G1 X102.391 Y106.42 E19.90587
G1 X101.5 Y106.5 E19.9505
G1 X98.5 Y106.5 E20.10017
G1 X97.869 Y106.46 E20.13171
G1 X97.248 Y106.341 E20.16326
G1 X96.648 Y106.144 E20.19476
G1 X96.076 Y105.873 E20.22634
G1 X95.544 Y105.533 E20.25784
G1 X95.059 Y105.127 E20.2894
G1 X94.629 Y104.664 E20.32092
G1 X94.26 Y104.15 E20.35249
G1 X93.96 Y103.594 E20.38401
G1 X93.732 Y103.005 E20.41552
G1 X93.58 Y102.391 E20.44707
G1 X93.5 Y101.5 E20.4917
G1 X93.5 Y98.5 E20.64138
G1 X93.54 Y97.869 E20.67292
G1 X93.659 Y97.248 E20.70446
G1 X93.856 Y96.648 E20.73597
G1 X94.127 Y96.076 E20.76755
G1 X94.467 Y95.544 E20.79905
G1 X94.873 Y95.059 E20.8306
G0 F3600 X95.267 Y95.228
G1 F1800 X95.725 Y94.831 E20.86084
G1 X96.232 Y94.498 E20.89111
G1 X96.778 Y94.234 E20.92136
G1 X97.354 Y94.045 E20.95161
G1 X97.95 Y93.933 E20.98186
G1 X98.5 Y93.9 E21.00935
G1 X101.5 Y93.9 E21.15902
G1 X102.105 Y93.94 E21.18927
G1 X102.699 Y94.059 E21.21949
G1 X103.273 Y94.255 E21.24975
G1 X103.816 Y94.526 E21.28003
G1 X104.319 Y94.865 E21.31029
G1 X104.772 Y95.267 E21.34051
G1 X105.169 Y95.725 E21.37075
G1 X105.502 Y96.232 E21.40101
G1 X105.766 Y96.778 E21.43127
G1 X105.955 Y97.354 E21.46151
G1 X106.067 Y97.95 E21.49177
G1 X106.1 Y98.5 E21.51926
G1 X106.1 Y101.5 E21.66893
G1 X106.06 Y102.105 E21.69918
G1 X105.941 Y102.699 E21.7294
G1 X105.745 Y103.273 E21.75966
G1 X105.474 Y103.816 E21.78994
G1 X105.135 Y104.319 E21.8202
G1 X104.733 Y104.772 E21.85042
G1 X104.275 Y105.169 E21.88065
G1 X103.768 Y105.502 E21.91092
G1 X103.222 Y105.766 E21.94117
G1 X102.646 Y105.955 E21.97142
G1 X102.05 Y106.067 E22.00167
G1 X101.5 Y106.1 E22.02916
G1 X98.5 Y106.1 E22.17883
G1 X97.895 Y106.06 E22.20908
G1 X97.301 Y105.941 E22.23931
G1 X96.727 Y105.745 E22.26957
G1 X96.184 Y105.474 E22.29984
G1 X95.681 Y105.135 E22.33011
G1 X95.228 Y104.733 E22.36032
G1 X94.831 Y104.275 E22.39056
G1 X94.498 Y103.768 E22.42082
G1 X94.234 Y103.222 E22.45108
